svgs/light/cassette-betamax.svg

<svg xmlns="http://www.w3.org/2000/svg" viewBox="0 0 576 512"><!--! Font Awesome Pro 6.6.0 by @fontawesome - https://fontawesome.com License - https://fontawesome.com/license (Commercial License) Copyright 2024 Fonticons, Inc. --><path d="M32 160l0 256c0 17.7 14.3 32 32 32l448 0c17.7 0 32-14.3 32-32l0-256L32 160zm0-32l512 0 0-32c0-17.7-14.3-32-32-32L64 64C46.3 64 32 78.3 32 96l0 32zM576 96l0 32 0 16 0 16 0 256c0 35.3-28.7 64-64 64L64 480c-35.3 0-64-28.7-64-64L0 160l0-16 0-16L0 96C0 60.7 28.7 32 64 32l448 0c35.3 0 64 28.7 64 64zM240 304a64 64 0 1 0 -128 0 64 64 0 1 0 128 0zM80 304a96 96 0 1 1 192 0A96 96 0 1 1 80 304zm72 0a24 24 0 1 1 48 0 24 24 0 1 1 -48 0zm200-48l0 96 96 0 0-96-96 0zm-32 0c0-17.7 14.3-32 32-32l96 0c17.7 0 32 14.3 32 32l0 96c0 17.7-14.3 32-32 32l-96 0c-17.7 0-32-14.3-32-32l0-96z"/></svg>

<svg xmlns="http://www.w3.org/2000/svg" viewBox="0 0 576 512"><!--! Font Awesome Pro 6.4.2 by @fontawesome - https://fontawesome.com License - https://fontawesome.com/license (Commercial License) Copyright 2023 Fonticons, Inc. --><path d="M32 160V416c0 17.7 14.3 32 32 32H512c17.7 0 32-14.3 32-32V160H32zm0-32H544V96c0-17.7-14.3-32-32-32H64C46.3 64 32 78.3 32 96v32zM576 96v32 16 16V416c0 35.3-28.7 64-64 64H64c-35.3 0-64-28.7-64-64V160 144 128 96C0 60.7 28.7 32 64 32H512c35.3 0 64 28.7 64 64zM240 304a64 64 0 1 0 -128 0 64 64 0 1 0 128 0zM80 304a96 96 0 1 1 192 0A96 96 0 1 1 80 304zm72 0a24 24 0 1 1 48 0 24 24 0 1 1 -48 0zm200-48v96h96V256H352zm-32 0c0-17.7 14.3-32 32-32h96c17.7 0 32 14.3 32 32v96c0 17.7-14.3 32-32 32H352c-17.7 0-32-14.3-32-32V256z"/></svg>
